icon/pk/battery-storage.svg

<svg viewBox="0 0 48 48" fill="none" xmlns="http://www.w3.org/2000/svg" height="1em" width="1em">
  <rect x="14" y="44" width="36" height="20" rx="2" transform="rotate(-90 14 44)" fill="#2F88FF" stroke="black" stroke-width="4" stroke-linecap="round" stroke-linejoin="round"/>
  <path d="M20 6L20 4C20 2.89543 20.8954 2 22 2L26 2C27.1046 2 28 2.89543 28 4L28 6L20 6Z" fill="black"/>
  <path d="M25 18L20 28L28 26L23 36" stroke="white" stroke-width="4" stroke-linecap="round" stroke-linejoin="round"/>
</svg>

<svg width="48" height="48" fill="none" xmlns="http://www.w3.org/2000/svg"><rect x="14" y="44" width="36" height="20" rx="2" transform="rotate(-90 14 44)" fill="#2F88FF" stroke="#000" stroke-width="4" stroke-linecap="round" stroke-linejoin="round"/><path d="M20 6V4a2 2 0 0 1 2-2h4a2 2 0 0 1 2 2v2h-8Z" fill="#000"/><path d="m25 18-5 10 8-2-5 10" stroke="#fff" stroke-width="4" stroke-linecap="round" stroke-linejoin="round"/></svg>
